X:17
T:Lord Hay's Strathspey
S:Petrie's Third Collection of Strathspey Reels and Country Dances &c.
Z:Steve Wyrick , 7/30/05
N:Petrie's Third Collection, page 8
L:1/8
M:C
R:Strathspey
K:G
F/G/|Ad B/A/G/F/ ECCE|Ad B/A/G/F/ AdAF|FB/G/ Fd/F/ ECCE|AD B/A/G/F/ ADDF/G/|Ad B/A/G/F/ ECCE|
Ad B/A/G/F/ AdAF|GB/G/ Fd/F/ ECCg|fd f/e/d/c/ dDD||e|=fdAd ecce|fdAd fdAF|GB/G/ Fd/F/ ECCE|
AD B/A/G/F/ ADDe|fdAd ecce|fdAd fdAF|GB/G/ Fd/F/ECCg|fd f/e/d/c/ dDD|]
